src/assets/images/coins/slp.svg

<?xml version="1.0" encoding="utf-8"?>
<svg viewBox="1.845 -0.909 78.303 76.539" xmlns="http://www.w3.org/2000/svg">
  <g id="Layer_x0020_1" transform="matrix(0.024751, 0, 0, 0.041814, 1.845167, 0.817977)" style="">
    <g id="_1421394342400">
      <g>
        <polygon fill="#343434" fill-rule="nonzero" points="392.07,0 383.5,29.11 383.5,873.74 392.07,882.29 784.13,650.54 "/>
        <polygon fill="#8C8C8C" fill-rule="nonzero" points="392.07,0 -0,650.54 392.07,882.29 392.07,472.33 "/>
        <polygon fill="#3C3C3B" fill-rule="nonzero" points="392.07,956.52 387.24,962.41 387.24,1263.28 392.07,1277.38 784.37,724.89 "/>
        <polygon fill="#8C8C8C" fill-rule="nonzero" points="392.07,1277.38 392.07,956.52 -0,724.89 "/>
        <polygon fill="#141414" fill-rule="nonzero" points="392.07,882.29 784.13,650.54 392.07,472.33 "/>
        <polygon fill="#393939" fill-rule="nonzero" points="0,650.54 392.07,882.29 392.07,472.33 "/>
      </g>
    </g>
  </g>
  <path d="M 24.203 75.63 C 31.977 75.63 38.23 64.954 38.23 51.684 C 38.23 38.414 31.977 27.737 24.203 27.737 C 16.43 27.737 10.176 38.414 10.176 51.684 C 10.176 64.954 16.43 75.63 24.203 75.63 Z" fill="#2775ca" style=""/>
  <path d="M 28.06 55.476 C 28.06 51.983 26.832 50.786 24.378 50.287 C 22.625 49.888 22.275 49.089 22.275 47.693 C 22.275 46.295 22.859 45.398 24.028 45.398 C 25.079 45.398 25.665 45.999 25.956 47.494 C 26.016 47.795 26.191 47.991 26.366 47.991 L 27.301 47.991 C 27.534 47.991 27.709 47.693 27.709 47.293 L 27.709 47.194 C 27.476 45 26.424 43.304 25.079 43.104 L 25.079 40.709 C 25.079 40.309 24.904 40.01 24.613 39.91 L 23.735 39.91 C 23.501 39.91 23.326 40.21 23.269 40.709 L 23.269 43.003 C 21.515 43.404 20.403 45.398 20.403 47.892 C 20.403 51.186 21.573 52.485 24.028 52.982 C 25.665 53.48 26.191 54.08 26.191 55.676 C 26.191 57.272 25.372 58.37 24.261 58.37 C 22.742 58.37 22.217 57.272 22.041 55.773 C 21.982 55.376 21.807 55.177 21.631 55.177 L 20.639 55.177 C 20.403 55.177 20.229 55.476 20.229 55.876 L 20.229 55.974 C 20.463 58.468 21.398 60.264 23.326 60.764 L 23.326 63.158 C 23.326 63.558 23.501 63.856 23.794 63.957 L 24.671 63.957 C 24.904 63.957 25.079 63.658 25.139 63.158 L 25.139 60.764 C 26.892 60.264 28.06 58.17 28.06 55.476 Z" fill="#fff" style=""/>
  <path d="M 21.223 65.953 C 16.664 63.158 14.325 54.477 16.02 46.796 C 16.897 42.603 18.826 39.412 21.223 37.913 C 21.455 37.716 21.573 37.415 21.573 36.918 L 21.573 35.522 C 21.573 35.122 21.455 34.822 21.223 34.722 C 21.164 34.722 21.047 34.722 20.989 34.822 C 15.436 37.815 12.397 47.892 14.15 57.371 C 15.202 62.958 17.716 67.25 20.989 69.046 C 21.223 69.244 21.455 69.046 21.515 68.647 C 21.573 68.546 21.573 68.446 21.573 68.248 L 21.573 66.851 C 21.573 66.55 21.398 66.152 21.223 65.953 Z M 27.418 34.822 C 27.183 34.623 26.95 34.822 26.892 35.221 C 26.832 35.321 26.832 35.419 26.832 35.619 L 26.832 37.017 C 26.832 37.415 27.008 37.815 27.183 38.016 C 31.743 40.807 34.08 49.489 32.385 57.172 C 31.508 61.362 29.579 64.554 27.183 66.052 C 26.95 66.251 26.832 66.55 26.832 67.051 L 26.832 68.446 C 26.832 68.847 26.95 69.145 27.183 69.244 C 27.242 69.244 27.359 69.244 27.418 69.145 C 32.97 66.152 36.009 56.074 34.255 46.595 C 33.204 40.909 30.632 36.618 27.418 34.822 Z" fill="#fff" style=""/>
  <g transform="matrix(1.485775, 0, 0, 2.244912, 16.633066, -3.234104)" style="">
    <defs>
      <rect id="SVGID_1_" width="24" height="24"/>
    </defs>
    <clipPath id="SVGID_2_">
      <rect width="24" height="24" transform="matrix(1, 0, 0, 1, 0, 0)" style="overflow: visible;"/>
    </clipPath>
    <g class="st0" style="clip-path: url(#SVGID_2_);">
      <linearGradient id="SVGID_3_" gradientUnits="userSpaceOnUse" x1="20.6442" y1="1011.5057" x2="24.3328" y2="998.8395" gradientTransform="matrix(1 0 0 -1 -12 1012)">
        <stop offset="0" style="stop-color:#03B8FF"/>
        <stop offset="1" style="stop-color:#FA52A0"/>
      </linearGradient>
      <path class="st1" d="M5,2.3L23.6,15l-4.6,6.8L0.4,9L5,2.3z" style="fill: url(#SVGID_3_);"/>
      <linearGradient id="SVGID_4_" gradientUnits="userSpaceOnUse" x1="23.6818" y1="1012.3904" x2="27.3705" y2="999.7241" gradientTransform="matrix(1 0 0 -1 -12 1012)">
        <stop offset="0" style="stop-color:#03B8FF"/>
        <stop offset="1" style="stop-color:#FA52A0"/>
      </linearGradient>
      <path class="st2" d="M23.6,15c-1.6,2.3-7,1.4-12.1-2.2C6.3,9.3,3.5,4.6,5,2.3c1.6-2.3,7-1.4,12.1,2.2C22.3,7.9,25.1,12.7,23.6,15z " style="fill: url(#SVGID_4_);"/>
      <linearGradient id="SVGID_5_" gradientUnits="userSpaceOnUse" x1="17.616" y1="1010.6239" x2="21.3047" y2="997.9576" gradientTransform="matrix(1 0 0 -1 -12 1012)">
        <stop offset="0" style="stop-color:#03B8FF"/>
        <stop offset="1" style="stop-color:#FA52A0"/>
      </linearGradient>
      <path class="st3" d="M19,21.7c-1.6,2.3-7,1.4-12.1-2.2s-8-8.2-6.4-10.6c1.6-2.3,7-1.4,12.1,2.2C17.7,14.7,20.5,19.4,19,21.7z" style="fill: url(#SVGID_5_);"/>
      <path class="st4" d="M23.6,15C23.6,15,23.6,15,23.6,15l-4.6,6.8l0,0c-1.6,2.3-7,1.3-12.1-2.2c-1-0.7-1.9-1.4-2.8-2.2 c0.7-0.1,1.6-0.5,2.5-1.5c1.6-1.7,2.4-2.1,3.1-2c0.7,0,1.5,0.7,2.8,2.4c1.3,1.7,3.1,2.2,4.2,1.3c0.1-0.1,0.2-0.1,0.3-0.2 c0.9-0.7,1.2-1,2.9-4.2c0.4-0.8,1.8-2.1,3.7-1.5C24.1,13,24.1,14.1,23.6,15z" style="fill: rgb(14, 15, 35);"/>
      <path class="st5" d="M22.9,14.6c-1.4,2-6.3,1-11-2.3C7.1,9,4.3,4.8,5.7,2.8s6.3-1,11,2.3S24.2,12.6,22.9,14.6z M18.5,11.6 c-0.7,1-3.1,0.5-5.5-1.1c-2.3-1.6-3.7-3.7-3-4.7c0.7-1,3.1-0.5,5.5,1.1C17.8,8.5,19.2,10.6,18.5,11.6z" style="clip-rule: evenodd; fill: rgb(255, 255, 255); fill-rule: evenodd;"/>
      <path class="st6" d="M4.6,4.6c0-0.1-0.1-0.2-0.2-0.1S4.2,4.6,4.2,4.7C4.3,5,4.4,5.2,4.4,5.4c0,0.1,0.1,0.2,0.2,0.1 c0.1,0,0.2-0.1,0.1-0.2C4.7,5.1,4.7,4.9,4.6,4.6z" style="fill: rgb(255, 255, 255);"/>
      <path class="st6" d="M5.1,6.2C5.1,6.1,5,6,4.9,6.1S4.8,6.2,4.8,6.3c1.1,2.5,3.4,5.2,6.4,7.2c0.1,0.1,0.2,0,0.3,0 c0.1-0.1,0-0.2,0-0.3C8.4,11.2,6.2,8.6,5.1,6.2z" style="fill: rgb(255, 255, 255);"/>
      <path class="st6" d="M17.2,16c-0.1,0-0.2,0-0.2,0.1c0,0.1,0,0.2,0.1,0.2c0.3,0.1,0.7,0.2,1,0.3c0.1,0,0.2,0,0.2-0.1 c0-0.1,0-0.2-0.1-0.2C17.9,16.2,17.5,16.1,17.2,16z" style="fill: rgb(255, 255, 255);"/>
      <path class="st6" d="M19,16.4c-0.1,0-0.2,0.1-0.2,0.2c0,0.1,0.1,0.2,0.2,0.2c0.8,0.1,1.7,0.2,2.4,0.1c0.1,0,0.2-0.1,0.2-0.2 c0-0.1-0.1-0.2-0.2-0.2C20.6,16.6,19.8,16.5,19,16.4z" style="fill: rgb(255, 255, 255);"/>
    </g>
  </g>
  <g id="surface1" transform="matrix(1.738349, 0, 0, 2.476936, 1.922313, 12.167639)" style="">
    <path style=" stroke:none;fill-rule:nonzero;fill:rgb(0%,0%,0%);fill-opacity:1;" d="M 32.324219 16.375 L 30.378906 16.375 L 30.378906 10.335938 C 30.378906 10.335938 32.328125 10.464844 32.328125 11.632812 Z M 32.324219 16.375 "/>
    <path style=" stroke:none;fill-rule:nonzero;fill:rgb(0%,0%,0%);fill-opacity:1;" d="M 30.488281 4.453125 L 35.246094 4.453125 C 36.59375 4.453125 39.023438 4.917969 39.023438 8.160156 C 39.023438 11.472656 35.871094 11.605469 35.871094 11.605469 L 38.851562 16.375 L 36.882812 16.375 L 34.296875 12.269531 L 34.296875 10.335938 C 34.296875 10.335938 37.121094 10.746094 37.121094 8.097656 C 37.121094 6.105469 35.148438 6.105469 35.148438 6.105469 L 31.472656 5.976562 C 31.472656 5.976562 30.488281 5.710938 30.488281 4.453125 Z M 30.488281 4.453125 "/>
    <path style=" stroke:none;fill-rule:nonzero;fill:rgb(0%,0%,0%);fill-opacity:1;" d="M 34.097656 0.015625 L 12.722656 0.015625 L 18.144531 4.1875 L 0 11.007812 L 18.273438 17.964844 L 12.800781 22 L 34.097656 22.003906 C 40.121094 22.003906 45 17.082031 45 11.007812 C 45 4.9375 40.121094 0.015625 34.097656 0.015625 Z M 34.097656 19.554688 C 29.421875 19.554688 25.628906 15.726562 25.628906 11.007812 C 25.628906 6.289062 29.421875 2.464844 34.097656 2.464844 C 38.777344 2.464844 42.570312 6.289062 42.570312 11.007812 C 42.570312 15.726562 38.777344 19.554688 34.097656 19.554688 Z M 34.097656 19.554688 "/>
  </g>
  <g transform="matrix(0.750786, 0, 0, 1.096698, 14.614004, 19.112194)" style="">
    <path class="st0" d="M29,10.2c-0.7-0.4-1.6-0.4-2.4,0L21,13.5l-3.8,2.1l-5.5,3.3c-0.7,0.4-1.6,0.4-2.4,0L5,16.3 c-0.7-0.4-1.2-1.2-1.2-2.1v-5c0-0.8,0.4-1.6,1.2-2.1l4.3-2.5c0.7-0.4,1.6-0.4,2.4,0L16,7.2c0.7,0.4,1.2,1.2,1.2,2.1v3.3l3.8-2.2V7 c0-0.8-0.4-1.6-1.2-2.1l-8-4.7c-0.7-0.4-1.6-0.4-2.4,0L1.2,5C0.4,5.4,0,6.2,0,7v9.4c0,0.8,0.4,1.6,1.2,2.1l8.1,4.7 c0.7,0.4,1.6,0.4,2.4,0l5.5-3.2l3.8-2.2l5.5-3.2c0.7-0.4,1.6-0.4,2.4,0l4.3,2.5c0.7,0.4,1.2,1.2,1.2,2.1v5c0,0.8-0.4,1.6-1.2,2.1 L29,28.8c-0.7,0.4-1.6,0.4-2.4,0l-4.3-2.5c-0.7-0.4-1.2-1.2-1.2-2.1V21l-3.8,2.2v3.3c0,0.8,0.4,1.6,1.2,2.1l8.1,4.7 c0.7,0.4,1.6,0.4,2.4,0l8.1-4.7c0.7-0.4,1.2-1.2,1.2-2.1V17c0-0.8-0.4-1.6-1.2-2.1L29,10.2z" style="fill: rgb(130, 71, 229);"/>
  </g>
</svg>

<?xml version="1.0" encoding="UTF-8" standalone="no"?>
<svg
   width="32"
   height="32"
   viewBox="0 0 32 32"
   version="1.1"
   id="svg71"
   sodipodi:docname="sushiswap.svg"
   inkscape:version="1.1.1 (3bf5ae0d25, 2021-09-20)"
   xmlns:inkscape="http://www.inkscape.org/namespaces/inkscape"
   xmlns:sodipodi="http://sodipodi.sourceforge.net/DTD/sodipodi-0.dtd"
   xmlns:xlink="http://www.w3.org/1999/xlink"
   xmlns="http://www.w3.org/2000/svg"
   xmlns:svg="http://www.w3.org/2000/svg">
  <sodipodi:namedview
     id="namedview73"
     pagecolor="#ffffff"
     bordercolor="#666666"
     borderopacity="1.0"
     inkscape:pageshadow="2"
     inkscape:pageopacity="0.0"
     inkscape:pagecheckerboard="0"
     showgrid="false"
     inkscape:zoom="12.515625"
     inkscape:cx="56.529338"
     inkscape:cy="8.0299625"
     inkscape:window-width="1920"
     inkscape:window-height="1009"
     inkscape:window-x="-8"
     inkscape:window-y="-8"
     inkscape:window-maximized="1"
     inkscape:current-layer="svg71" />
  <defs
     id="defs57">
    <linearGradient
       x1="50%"
       y1="0%"
       x2="50%"
       y2="100%"
       id="c">
      <stop
         stop-color="#FFF"
         stop-opacity=".5"
         offset="0%"
         id="stop42" />
      <stop
         stop-opacity=".5"
         offset="100%"
         id="stop44" />
    </linearGradient>
    <filter
       x="-0.04"
       y="-0.04"
       width="1.08"
       height="1.0966667"
       filterUnits="objectBoundingBox"
       id="a">
      <feOffset
         dy=".5"
         in="SourceAlpha"
         result="shadowOffsetOuter1"
         id="feOffset47" />
      <feGaussianBlur
         stdDeviation=".5"
         in="shadowOffsetOuter1"
         result="shadowBlurOuter1"
         id="feGaussianBlur49" />
      <feComposite
         in="shadowBlurOuter1"
         in2="SourceAlpha"
         operator="out"
         result="shadowBlurOuter1"
         id="feComposite51" />
      <feColorMatrix
         values="0 0 0 0 0 0 0 0 0 0 0 0 0 0 0 0 0 0 0.199473505 0"
         in="shadowBlurOuter1"
         id="feColorMatrix53" />
    </filter>
    <circle
       id="b"
       cx="16"
       cy="15"
       r="15" />
    <rect
       id="SVGID_1_"
       width="24"
       height="24" />
  </defs>
  <style
     type="text/css"
     id="style155">
	.st0{clip-path:url(#SVGID_2_);}
	.st1{fill:url(#SVGID_3_);}
	.st2{fill:url(#SVGID_4_);}
	.st3{fill:url(#SVGID_5_);}
	.st4{fill:#0E0F23;}
	.st5{fill-rule:evenodd;clip-rule:evenodd;fill:#FFFFFF;}
	.st6{fill:#FFFFFF;}
</style>
  <g
     id="g198"
     transform="matrix(1.1564618,0,0,1.1564618,2.1360919,1.9778143)">
    <defs
       id="defs158">
      <rect
         id="rect207"
         width="24"
         height="24"
         x="0"
         y="0" />
    </defs>
    <clipPath
       id="SVGID_2_">
      <use
         xlink:href="#SVGID_1_"
         style="overflow:visible"
         id="use160"
         x="0"
         y="0"
         width="100%"
         height="100%" />
    </clipPath>
    <g
       class="st0"
       clip-path="url(#SVGID_2_)"
       id="g196">
      <linearGradient
         id="SVGID_3_"
         gradientUnits="userSpaceOnUse"
         x1="20.644199"
         y1="1011.5057"
         x2="24.3328"
         y2="998.83948"
         gradientTransform="matrix(1,0,0,-1,-12,1012)">
        <stop
           offset="0"
           style="stop-color:#03B8FF"
           id="stop163" />
        <stop
           offset="1"
           style="stop-color:#FA52A0"
           id="stop165" />
      </linearGradient>
      <path
         class="st1"
         d="M 5,2.3 23.6,15 19,21.8 0.4,9 Z"
         id="path168"
         style="fill:url(#SVGID_3_)" />
      <linearGradient
         id="SVGID_4_"
         gradientUnits="userSpaceOnUse"
         x1="23.681801"
         y1="1012.3904"
         x2="27.370501"
         y2="999.72412"
         gradientTransform="matrix(1,0,0,-1,-12,1012)">
        <stop
           offset="0"
           style="stop-color:#03B8FF"
           id="stop170" />
        <stop
           offset="1"
           style="stop-color:#FA52A0"
           id="stop172" />
      </linearGradient>
      <path
         class="st2"
         d="M 23.6,15 C 22,17.3 16.6,16.4 11.5,12.8 6.3,9.3 3.5,4.6 5,2.3 6.6,0 12,0.9 17.1,4.5 c 5.2,3.4 8,8.2 6.5,10.5 z"
         id="path175"
         style="fill:url(#SVGID_4_)" />
      <linearGradient
         id="SVGID_5_"
         gradientUnits="userSpaceOnUse"
         x1="17.615999"
         y1="1010.6239"
         x2="21.304701"
         y2="997.95758"
         gradientTransform="matrix(1,0,0,-1,-12,1012)">
        <stop
           offset="0"
           style="stop-color:#03B8FF"
           id="stop177" />
        <stop
           offset="1"
           style="stop-color:#FA52A0"
           id="stop179" />
      </linearGradient>
      <path
         class="st3"
         d="M 19,21.7 C 17.4,24 12,23.1 6.9,19.5 1.8,15.9 -1.1,11.3 0.5,8.9 c 1.6,-2.3 7,-1.4 12.1,2.2 5.1,3.6 7.9,8.3 6.4,10.6 z"
         id="path182"
         style="fill:url(#SVGID_5_)" />
      <path
         class="st4"
         d="m 23.6,15 c 0,0 0,0 0,0 L 19,21.8 v 0 C 17.4,24.1 12,23.1 6.9,19.6 5.9,18.9 5,18.2 4.1,17.4 c 0.7,-0.1 1.6,-0.5 2.5,-1.5 1.6,-1.7 2.4,-2.1 3.1,-2 0.7,0 1.5,0.7 2.8,2.4 1.3,1.7 3.1,2.2 4.2,1.3 0.1,-0.1 0.2,-0.1 0.3,-0.2 0.9,-0.7 1.2,-1 2.9,-4.2 0.4,-0.8 1.8,-2.1 3.7,-1.5 0.5,1.3 0.5,2.4 0,3.3 z"
         id="path184" />
      <path
         class="st5"
         d="m 22.9,14.6 c -1.4,2 -6.3,1 -11,-2.3 C 7.1,9 4.3,4.8 5.7,2.8 c 1.4,-2 6.3,-1 11,2.3 4.7,3.3 7.5,7.5 6.2,9.5 z m -4.4,-3 c -0.7,1 -3.1,0.5 -5.5,-1.1 -2.3,-1.6 -3.7,-3.7 -3,-4.7 0.7,-1 3.1,-0.5 5.5,1.1 2.3,1.6 3.7,3.7 3,4.7 z"
         id="path186" />
      <path
         class="st6"
         d="M 4.6,4.6 C 4.6,4.5 4.5,4.4 4.4,4.5 4.3,4.6 4.2,4.6 4.2,4.7 4.3,5 4.4,5.2 4.4,5.4 c 0,0.1 0.1,0.2 0.2,0.1 0.1,0 0.2,-0.1 0.1,-0.2 0,-0.2 0,-0.4 -0.1,-0.7 z"
         id="path188" />
      <path
         class="st6"
         d="M 5.1,6.2 C 5.1,6.1 5,6 4.9,6.1 4.8,6.2 4.8,6.2 4.8,6.3 c 1.1,2.5 3.4,5.2 6.4,7.2 0.1,0.1 0.2,0 0.3,0 0.1,-0.1 0,-0.2 0,-0.3 -3.1,-2 -5.3,-4.6 -6.4,-7 z"
         id="path190" />
      <path
         class="st6"
         d="m 17.2,16 c -0.1,0 -0.2,0 -0.2,0.1 0,0.1 0,0.2 0.1,0.2 0.3,0.1 0.7,0.2 1,0.3 0.1,0 0.2,0 0.2,-0.1 0,-0.1 0,-0.2 -0.1,-0.2 -0.3,-0.1 -0.7,-0.2 -1,-0.3 z"
         id="path192" />
      <path
         class="st6"
         d="m 19,16.4 c -0.1,0 -0.2,0.1 -0.2,0.2 0,0.1 0.1,0.2 0.2,0.2 0.8,0.1 1.7,0.2 2.4,0.1 0.1,0 0.2,-0.1 0.2,-0.2 0,-0.1 -0.1,-0.2 -0.2,-0.2 -0.8,0.1 -1.6,0 -2.4,-0.1 z"
         id="path194" />
    </g>
  </g>
</svg>
